X: 1440
T: Frank Collins 1st Old Time Polka
B: australian traditional tunes wiki
M:2/4
L:1/16
R: Set Tune
Q: 1/4=100
K:D
V:1 
|:fe|"D"d2cd B2A2|d2Adf4|"A7"e2ge c2ec|Acef g2fe|
"D"d2cd B2A2|d2Ad f2ef|"A7"g2ec Aceg|1"D"f2d2 d2:|2"D"f2d2 d2fg|:
"D"a3g f2d2|A2df "A7"a2ef|g3e c2ec|Acef g2fg|
"D"a3g f2d2|A2df a2ef|"A7"g2ec Aceg|1"D"f2d2 d2fg:|2 "D"f2d2 d2||
% abcbook-tune_id 6342d53a9727e178cdc6703e


% abcbook-boost 0
% abcbook-tablature 
% abcbook-transpose 
% abcbook-lastupdated 1665324365179
% abcbook-soundfonts 
% abcbook-repeats 1
% NFF Book 2009

